svgs/sharp-solid/sign-hanging.svg

<svg xmlns="http://www.w3.org/2000/svg" viewBox="0 0 512 512"><!--! Font Awesome Pro 6.6.0 by @fontawesome - https://fontawesome.com License - https://fontawesome.com/license (Commercial License) Copyright 2024 Fonticons, Inc. --><path d="M128 0l0 32 0 32 352 0 32 0 0 64-32 0-352 0 0 352 0 32-64 0 0-32 0-352-32 0L0 128 0 64l32 0 32 0 0-32L64 0l64 0zM480 160l0 224-320 0 0-224 320 0z"/></svg>

<svg xmlns="http://www.w3.org/2000/svg" viewBox="0 0 512 512"><!--! Font Awesome Pro 6.4.0 by @fontawesome - https://fontawesome.com License - https://fontawesome.com/license (Commercial License) Copyright 2023 Fonticons, Inc. --><path d="M128 0V32 64l352 0h32v64H480l-352 0V480v32H64V480 128H32 0V64l32 0H64V32 0h64zM480 160V384H160V160H480z"/></svg>
